X: 685
T: Da shujiu
%%abc-version 2.0
%%abcx-abcm2ps-target-version 5.9.1 (29 Sep 2008)
%%abc-creator hum2abc beta
%%abcx-conversion-date 2013/10/02 07:52:30
%%abc-edited-by Helmut Schaffrath
%%humdrum-veritas 3061443231
%%humdrum-veritas-data 753492720
%%continueall 1
%%barnumbers 0
L: 1/8
K: D
A2d B [I:setbarnb 1]| 
A2F E | 
A B A D | 
E2E2 | 
B d B A | 
G2A2 | 
B e d B | 
A3G | 
A4 | 
A B A D | 
E2E2 | 
A B A D | 
E2E2 | 
A B A A | 
D B,/ D/ E G | 
BA2G | 
D ED2 | 
d3e | 
B d B A | 
B A E G | 
A2A d | 
B A E G | 
A2A2 | 
A B A A | 
D B,/ D/ E G | 
BA2G | 
D ED2 | 
A B A D | 
E2E2 | 
A B A D | 
E2E2 | 
A B A A | 
D B,/ D/E2 | 
[M:3/4]A G A B A A | 
[M:2/4]D B,/ D/ E G | 
BA2G | 
D ED2 |]  



